Resources/Icons/PCGEx_Editor_From_Pivot.svg

<?xml version="1.0" encoding="UTF-8"?>
<svg id="icons" xmlns="http://www.w3.org/2000/svg" viewBox="0 0 100 100">
  <defs>
    <style>
      .cls-1 {
        fill: #fff;
      }
    </style>
  </defs>
  <path class="cls-1" d="M72.78,75.28H27.22c-1.38,0-2.5-1.12-2.5-2.5V27.22c0-1.38,1.12-2.5,2.5-2.5h45.57c1.38,0,2.5,1.12,2.5,2.5v45.57c0,1.38-1.12,2.5-2.5,2.5ZM27.44,72.56h45.13V27.44H27.44v45.13Z"/>
  <path d="M50,88.37c-.64,0-1.28-.24-1.77-.73l-13.09-13.09c-.98-.98-.98-2.56,0-3.54l13.09-13.09c.94-.94,2.6-.94,3.54,0l13.09,13.09c.47.47.73,1.1.73,1.77s-.26,1.3-.73,1.77l-13.09,13.09c-.49.49-1.13.73-1.77.73ZM40.44,72.78l9.55,9.55,9.56-9.55-9.56-9.56-9.55,9.56Z"/>
  <rect class="cls-1" x="40.74" y="63.53" width="18.51" height="18.51" transform="translate(-36.82 56.67) rotate(-45)"/>
</svg>

<svg id="icons" xmlns="http://www.w3.org/2000/svg" viewBox="0 0 100 100">
    <defs>
        <style>.cls-1{fill:#fff;}</style>
    </defs>
    <path class="cls-1"
          d="M72.78,75.28H27.22a2.49,2.49,0,0,1-2.5-2.5V27.22a2.5,2.5,0,0,1,2.5-2.5H72.78a2.49,2.49,0,0,1,2.5,2.5V72.78A2.49,2.49,0,0,1,72.78,75.28ZM27.44,72.56H72.56V27.44H27.44Z"/>
    <path d="M50,88.37a2.49,2.49,0,0,1-1.77-.73L35.14,74.55a2.5,2.5,0,0,1,0-3.53L48.23,57.93a2.57,2.57,0,0,1,3.54,0L64.86,71a2.5,2.5,0,0,1,0,3.53L51.77,87.64A2.49,2.49,0,0,1,50,88.37ZM40.44,72.78,50,82.34l9.56-9.56L50,63.23Z"/>
    <rect class="cls-1" x="40.74" y="63.53" width="18.51" height="18.51"
          transform="translate(-36.82 56.67) rotate(-45)"/>
</svg>
